X:4
T:Ingen kan dansa polska som min Ann-Sofi
T:Polska efter Pelle Fors
R:sl-polska
H:Pelle Fors (Petter Magnus Johansson) var f\"odd i Ukna, Sm{\aa}land, 1815,
H:men levde st\"orre delen av sitt liv i R\"on\"o, Vikbolandet,
H:\"Osterg\"otland. Han dog d\"ar 1908. Han l\"arde sig spela fiol
H:av Johannes L{\aa}ng fr{\aa}n L{\aa}ngserum, som i sin tur hade l\"art sig av
H:Klockare S\"oderlund fr{\aa}n Yxnerum. Pelle Fors var skomakare och
H:fiolspelare, och spelade p{\aa} br\"ollop och danser
A:\"Osterg\"otland
Z:id:hn-sp-4
M:3/4
L:1/16
K:Dm
f2 (3gfe f2a2 c'2a2|a2e2 f2gf e2c2|c2eg ag^fg abag|f2d2 d^ce^c A4:|
A2d2 d2ed ^cAce|e2f2 f2gf e=ceg|g2a2 afdf abag|e2fe d2ed ^c2A2 A4|
A2d2 d2ed ^cAce|e2f2 f2gf e=ceg|g2a2 afdf abag|e2fe d^ce^c d4||
